src/svg/briefcase.svg

<svg height="1000" width="1000.0" xmlns="http://www.w3.org/2000/svg">
    <path d="m625 656.3v-93.8h375v281.3c0 49.9-43.8 93.7-93.7 93.7h-812.5c-50 0-93.8-43.8-93.8-93.7v-281.3h375v93.8c0 17.2 14 31.2 31.3 31.2h187.5c17.2 0 31.2-14 31.2-31.2z m281.3-406.3c49.9 0 93.7 43.8 93.7 93.8v156.2h-1000v-156.2c0-50 43.8-93.8 93.8-93.8h156.2v-93.7c0-50 43.8-93.8 93.8-93.8h312.5c49.9 0 93.7 43.8 93.7 93.8v93.7h156.3z m-281.3 0v-62.5h-250v62.5h250z" />
  </svg>

<svg height="1000" width="1000" xmlns="http://www.w3.org/2000/svg"><path d="M625 562.5h375v281.3c0 51.7 -42 93.7 -93.7 93.7H93.8C42 937.5 0 895.5 0 843.8V562.5h375v39.1c0 12.9 10.5 23.4 23.4 23.4h203.2c12.9 0 23.4 -10.5 23.4 -23.4v-39.1zm375 -218.7V500H0V343.8C0 292 42 250 93.8 250H250v-93.7c0 -51.8 42 -93.8 93.8 -93.8h312.5c51.7 0 93.7 42 93.7 93.8V250h156.3c51.7 0 93.7 42 93.7 93.8zM625 187.5H375V250h250v-62.5z"/></svg>
